Adwaita++/actions/22/document-print-preview.svg

<svg height="22" viewBox="0 0 22 22" width="22" xmlns="http://www.w3.org/2000/svg">
  <path d="m4 1v2h8v-2zm-2 3c-.5 0-1 .5-1 1v4c0 .5.5 1 1 1h1v-2h5.125c.66316-.63263 1.55075-1.03125 2.53125-1.03125 1.7815 0 3.2906 1.27975 3.625 2.96875.39275-.13746.71875-.53064.71875-.9375v-4c0-.5-.5-1-1-1zm8.660156 3.9394531c-1.4955998 0-2.7187498 1.22315-2.7187498 2.7187499 0 1.4956 1.2231501 2.71875 2.7187498 2.71875.4871 0 .94724-.14835 1.34375-.375a.75008.75008 0 0 0 .15625.21875l1.84375 1.8125a.75130096.75130096 0 1 0 1.0625-1.0625l-1.84375-1.8125a.75008.75008 0 0 0 -.21875-.15625c.22665-.39646.375-.85659.375-1.34375 0-1.4955999-1.22315-2.7187499-2.71875-2.7187499zm0 1c.95516 0 1.71875.76354 1.71875 1.7187499 0 .95516-.76354 1.71875-1.71875 1.71875-.9551597 0-1.7187498-.76354-1.7187498-1.71875 0-.9551599.7635401-1.7187499 1.7187498-1.7187499zm-6.660156.0605469v5h5.09375c-1.2537-.5913-2.125-1.87515-2.125-3.34375 0-.59537.15156-1.15645.40625-1.65625z" fill="#444" transform="translate(3 3)"/>
</svg>

<svg xmlns="http://www.w3.org/2000/svg" width="22" height="22" viewBox="0 0 22 22">
 <defs>
  <style id="current-color-scheme" type="text/css">
   .ColorScheme-Text { color:#444444; } .ColorScheme-Highlight { color:#4285f4; }
  </style>
 </defs>
 <path style="fill:currentColor" class="ColorScheme-Text" d="M 4 1 L 4 3 L 12 3 L 12 1 L 4 1 z M 2 4 C 1.5 4 1 4.5 1 5 L 1 9 C 1 9.5 1.5 10 2 10 L 3 10 L 3 8 L 8.125 8 C 8.78816 7.36737 9.67575 6.96875 10.65625 6.96875 C 12.43775 6.96875 13.94685 8.2485 14.28125 9.9375 C 14.674 9.80004 15 9.40686 15 9 L 15 5 C 15 4.5 14.5 4 14 4 L 2 4 z M 10.660156 7.9394531 C 9.1645562 7.9394531 7.9414062 9.1626031 7.9414062 10.658203 C 7.9414062 12.153803 9.1645563 13.376953 10.660156 13.376953 C 11.147256 13.376953 11.607396 13.228603 12.003906 13.001953 A 0.75008 0.75008 0 0 0 12.160156 13.220703 L 14.003906 15.033203 A 0.75130096 0.75130096 0 1 0 15.066406 13.970703 L 13.222656 12.158203 A 0.75008 0.75008 0 0 0 13.003906 12.001953 C 13.230556 11.605493 13.378906 11.145363 13.378906 10.658203 C 13.378906 9.1626031 12.155756 7.9394531 10.660156 7.9394531 z M 10.660156 8.9394531 C 11.615316 8.9394531 12.378906 9.7029931 12.378906 10.658203 C 12.378906 11.613363 11.615366 12.376953 10.660156 12.376953 C 9.7049963 12.376953 8.9414062 11.613413 8.9414062 10.658203 C 8.9414062 9.7030431 9.7049463 8.9394531 10.660156 8.9394531 z M 4 9 L 4 14 L 9.09375 14 C 7.84005 13.4087 6.96875 12.12485 6.96875 10.65625 C 6.96875 10.06088 7.12031 9.4998 7.375 9 L 4 9 z" transform="translate(3 3)"/>
</svg>
